X: 35348
T: Roshambo
R: jig
M: 6/8
K: Gmajor
[M:7/8]
G2AB BcA|AG GF GAB|d2 FD FGA|AG GF GAB|
G2AB BcA|AG GF GAB|d2 FD FGA|1 AGF G2 GD:|2 AGF G2 Bd||
|:g2 fg afd|cA Bc def|g2 fg afd|cB cd efa|
g2 fg afd|e2 ed efg|gdB cBAG|1 AGF G2 Bd:|2 AGF G2 GD||

